src/assets/icons/declaration.svg

<?xml version="1.0" encoding="UTF-8"?>
<svg width="24px" height="24px" viewBox="0 0 24 24" version="1.1" xmlns="http://www.w3.org/2000/svg" xmlns:xlink="http://www.w3.org/1999/xlink">
    <title>Icon/Covid/Declaration</title>
    <g id="Icon/Covid/Declaration" stroke="none" stroke-width="1" fill="none" fill-rule="evenodd">
        <path d="M12.2938848,0.0921648476 C13.637894,0.993768433 15.0819889,1.77067163 16.5832756,2.39813231 C18.4838843,3.07507726 20.4794723,3.47688962 22.5087626,3.59169315 C22.6445933,3.59664157 22.7763389,3.6570124 22.8682544,3.75796033 C22.9434209,3.83713518 22.9891744,3.93911238 22.9992402,4.04565006 L23,4.12612337 L22.8591037,5.5877465 C22.7251522,6.92161308 22.5794354,8.22747553 22.4318804,9.41597709 L22.2840803,10.5620489 L22.1165898,11.7496716 L21.9527751,12.8094741 L21.8443955,13.4525641 L21.7302447,14.0786655 C21.4455551,15.573815 21.1656782,16.5446325 20.8828793,17.0237062 C17.8506885,22.155226 12.3858004,23.9040005 12.1549903,23.9762475 C12.1039261,23.9920825 12.0508194,24 11.9987339,24 C11.9456272,24 11.8925204,23.9920825 11.8424775,23.9762475 L11.471549,23.8475764 L11.2576529,23.7661617 L10.9878768,23.6575504 C9.28912194,22.954039 5.47006381,21.0111464 3.11458855,17.0237062 C2.00138951,15.1393448 1.09959616,5.24941653 1.00053166,4.12810274 C0.994403962,3.97371179 1.041383,3.84703203 1.1343198,3.75004284 C1.2272566,3.65305365 1.35389576,3.59664157 1.48972647,3.59169315 C3.51493169,3.4778793 5.51051969,3.07507726 7.42031988,2.39615294 C8.91343639,1.77067163 10.3585526,0.994758119 11.7046043,0.091175162 C11.8792437,-0.0305561674 12.1161815,-0.0305561674 12.2938848,0.0921648476 Z M11.9987339,1.09471637 C10.6792356,1.96267064 9.2657792,2.70988327 7.79615221,3.31656055 C5.94762904,3.98360865 4.02148832,4.39630754 2.06266653,4.54673975 L2.24561862,6.3840218 L2.42316856,7.98475286 C2.83266963,11.5112143 3.42794594,15.563722 4.00004137,16.5328221 C6.5389522,20.8290473 11.0111527,22.6273061 11.9987339,22.9806238 L12.2777496,22.8757487 L12.5381256,22.7708064 L12.8454821,22.6392404 C14.4916557,21.9133287 17.7182421,20.1547664 19.8048532,16.849592 L19.9984477,16.5328221 L20.0453133,16.4458386 L20.1224419,16.2741198 C20.3298723,15.7666782 20.615765,14.7085864 20.964323,12.5322239 L21.1055191,11.6111156 L21.2730096,10.4353691 L21.4117331,9.36087932 L21.6400362,7.41569742 L21.8634135,5.28413388 C21.8919626,4.99540969 21.9158962,4.74639233 21.9348013,4.54673975 C19.9759795,4.39630754 18.0498388,3.98261896 16.2074433,3.31853992 C14.7337312,2.71087296 13.3202748,1.96366033 11.9987339,1.09471637 Z M12.7351142,6 C12.9974631,6 13.211461,6.21399791 13.211461,6.4772422 C13.211461,6.71044123 13.0423762,6.905437 12.8205458,6.94589039 L12.7351142,6.95358902 L12.4530667,6.95358902 L12.4530667,8.0531264 C13.0985425,8.1263493 13.7100599,8.35521509 14.2429697,8.72148681 L14.4390389,8.86524399 L15.2189225,8.08536039 L15.0201462,7.88658409 C14.8473362,7.70213401 14.8473362,7.416505 15.0165647,7.23384569 C15.1765408,7.06352286 15.43344,7.03610849 15.6231298,7.15726232 L15.6907924,7.2096702 L16.7625728,8.28145053 C16.9353828,8.466796 16.9362782,8.75242501 16.7661543,8.93418893 C16.6793016,9.02730936 16.5620057,9.08103268 16.4348605,9.08640501 C16.3408447,9.08976272 16.2483398,9.06541934 16.1683004,9.01601906 L16.092822,8.95836442 L15.8904641,8.75690195 L15.1114759,9.53589017 C15.5181814,10.0484505 15.789053,10.6459069 15.905854,11.285497 L15.9423967,11.5272347 L17.0473064,11.5272347 L17.0473064,11.2451873 C17.0473064,10.981943 17.2604089,10.7688405 17.5236532,10.7688405 C17.7568522,10.7688405 17.951848,10.9372178 17.9923014,11.1595198 L18,11.2451873 L18,12.7574989 C18,13.0198478 17.7860021,13.2338457 17.5236532,13.2338457 C17.2896583,13.2338457 17.0952815,13.0647609 17.0549755,12.8429305 L17.0473064,12.7574989 L17.0473064,12.4754514 L15.9423967,12.4754514 C15.8651942,13.1241108 15.6316415,13.7373969 15.2599753,14.2700316 L15.1141621,14.4659006 L15.8788241,15.2341442 L16.1017759,15.0120877 C16.2915983,14.8356962 16.5942397,14.8464408 16.772422,15.038054 C16.8592747,15.1311745 16.9049396,15.2520519 16.9004626,15.3800925 C16.8968811,15.4818087 16.8617818,15.5777944 16.8002077,15.6561301 L16.7491419,15.7113864 L15.6818385,16.7813759 C15.4955977,16.9613491 15.2045963,16.9622444 15.0183555,16.7822713 C14.8504203,16.6199075 14.8282235,16.362743 14.9530228,16.1755392 L15.0067154,16.108939 L15.2072825,15.9083719 L14.4381436,15.139233 C13.9255832,15.5379794 13.3295417,15.8015995 12.6934104,15.9124853 L12.4530667,15.9468736 L12.4530667,17.046411 L12.7306372,17.046411 C12.9938815,17.046411 13.2078794,17.2604089 13.2078794,17.5227578 C13.2078794,17.7567527 13.0387947,17.9511295 12.8163354,17.9914355 L12.7306372,17.9991046 L11.2138487,17.9991046 C10.9514998,17.9991046 10.7375019,17.7860021 10.7375019,17.5227578 C10.7375019,17.2895588 10.9065866,17.094563 11.128417,17.0541096 L11.2138487,17.046411 L11.4958961,17.046411 L11.4958961,15.9423967 C10.8543998,15.8620106 10.2482769,15.6281042 9.72217647,15.2582853 L9.52872706,15.1132667 L8.74973884,15.8922549 L8.94851515,16.0919266 C9.13386062,16.2781674 9.13386062,16.5790181 8.94851515,16.7652589 C8.78376362,16.9292145 8.52633383,16.9488468 8.34098713,16.8203824 L8.27518281,16.7652589 L7.20519325,15.6961648 C7.11475899,15.6066259 7.06551261,15.4866438 7.06551261,15.3594986 C7.06461722,15.231458 7.1138636,15.1114759 7.20429787,15.0210416 C7.27592897,14.9494105 7.36704372,14.9029936 7.46572273,14.887292 L7.54096404,14.881361 C7.63699448,14.881361 7.72798836,14.9090621 7.80563535,14.9606868 L7.87852559,15.0201462 L8.07819728,15.2198179 L8.86255783,14.4372482 C8.46699498,13.9310551 8.20302111,13.3420882 8.08950203,12.7131102 L8.05402179,12.4754514 L6.95358902,12.4754514 L6.95358902,12.7592897 C6.95358902,13.0216386 6.73959111,13.2356365 6.47634681,13.2356365 C6.24314779,13.2356365 6.04815202,13.0665517 6.00769862,12.8447213 L6,12.7592897 L6,11.2425011 C6.00089539,11.1144605 6.05014177,10.9953738 6.13968064,10.905835 C6.20750634,10.8386808 6.29144904,10.7941912 6.38244292,10.7761435 L6.47545143,10.7670497 C6.71422176,10.7686415 6.90842163,10.9379031 6.94737165,11.1603821 L6.95448441,11.2460827 L6.95448441,11.5218624 L8.05491718,11.5218624 C8.13052778,10.8835497 8.3589514,10.2791955 8.72195109,9.75219103 L8.8643486,9.55827488 L8.07192956,8.76585584 L7.87315326,8.96552753 C7.68780779,9.13833756 7.40217878,9.13744217 7.22041486,8.96731831 C7.04929612,8.80893399 7.02179332,8.55221167 7.14356619,8.36191269 L7.19623937,8.29398597 L8.26891509,7.22220564 C8.45426056,7.03686017 8.75690195,7.03686017 8.94224743,7.22220564 C9.10442471,7.38516639 9.12469687,7.63656077 9.00246407,7.82103009 L8.94135204,7.89553798 L8.74257573,8.09431428 L9.533204,8.88494255 C10.0386012,8.48301249 10.6288945,8.21337888 11.2600638,8.09427866 L11.4985823,8.05670795 L11.4985823,6.95358902 L11.2165348,6.95358902 C10.9541859,6.95358902 10.740188,6.73959111 10.740188,6.4772422 C10.740188,6.24324728 10.9092728,6.04816307 11.1311032,6.00769985 L11.2165348,6 L12.7351142,6 Z M12.0062128,9 C11.20112,9 10.4493447,9.30985556 9.88329161,9.87274503 C9.31546129,10.4374102 9.00177725,11.190297 9,11.9902393 C9.00177725,12.7892938 9.29768882,13.523536 9.83530595,14.0819863 C10.9762983,15.2681382 12.8681775,15.3098666 14.0598214,14.1778728 L14.0909232,14.1317052 L14.1611244,14.0766593 L14.1611244,14.0766593 C14.7005188,13.5173212 14.9982076,12.7813032 15,12.0044447 C15.0017621,11.2036146 14.6916326,10.4507277 14.1264681,9.88251125 C13.6084007,9.36245998 12.9327816,9.05577351 12.2057031,9.00690284 L12.0062128,9 Z" id="Shape" fill="#878E99"></path>
    </g>
</svg>

<svg width="24" height="24" xmlns="http://www.w3.org/2000/svg"><path d="M12.294.092a25.082 25.082 0 004.29 2.306c1.9.677 3.895 1.079 5.925 1.194a.515.515 0 01.49.454l.001.08-.14 1.462c-.135 1.334-.28 2.64-.428 3.828l-.148 1.146-.167 1.188-.164 1.06-.109.643-.114.626c-.284 1.495-.564 2.466-.847 2.945-3.032 5.131-8.497 6.88-8.728 6.952a.53.53 0 01-.313 0l-.37-.128-.214-.082-.27-.108c-1.699-.704-5.518-2.647-7.873-6.634C2 15.139 1.1 5.249 1 4.128a.497.497 0 01.489-.536 21.261 21.261 0 005.93-1.196A25.138 25.138 0 0011.705.091a.52.52 0 01.589.001zm-.295 1.003a25.07 25.07 0 01-4.203 2.222 21.797 21.797 0 01-5.733 1.23l.183 1.837.177 1.6c.41 3.527 1.005 7.58 1.577 8.549 2.539 4.296 7.011 6.094 7.999 6.448l.279-.105.26-.105.307-.132c1.647-.726 4.873-2.484 6.96-5.79l.193-.316.047-.087.077-.172c.208-.507.494-1.565.842-3.742l.142-.92.167-1.177.139-1.074.228-1.945.223-2.132.072-.737a21.816 21.816 0 01-5.728-1.228A25.058 25.058 0 0112 1.095zM12.735 6a.477.477 0 01.086.946l-.086.008h-.282v1.1a3.935 3.935 0 011.79.667l.196.144.78-.78-.199-.198a.48.48 0 01-.003-.653.48.48 0 01.606-.077l.068.053 1.072 1.071a.478.478 0 01-.328.805.474.474 0 01-.267-.07l-.075-.058-.203-.201-.779.779c.407.512.678 1.11.795 1.75l.036.241h1.105v-.282a.476.476 0 01.945-.085l.008.085v1.512a.477.477 0 01-.945.086l-.008-.086v-.282h-1.105a3.942 3.942 0 01-.682 1.795l-.146.196.765.768.223-.222a.477.477 0 01.698.644l-.05.055-1.068 1.07a.478.478 0 01-.729-.606l.054-.066.2-.2-.769-.77a3.934 3.934 0 01-1.745.773l-.24.035v1.1h.278a.477.477 0 01.085.944l-.085.008h-1.517a.477.477 0 01-.086-.945l.086-.008h.282v-1.104a3.925 3.925 0 01-1.774-.684l-.193-.145-.78.78.2.199a.477.477 0 01-.608.728l-.066-.055-1.07-1.069a.47.47 0 01-.14-.337.474.474 0 01.4-.472l.076-.006c.096 0 .187.028.265.08l.073.06.2.199.784-.783a3.927 3.927 0 01-.773-1.724l-.036-.238h-1.1v.284a.477.477 0 01-.946.086L6 12.759v-1.516a.476.476 0 01.382-.467l.093-.009c.24.002.433.17.472.393l.007.086v.276h1.1a3.926 3.926 0 01.668-1.77l.142-.194-.792-.792-.199.2a.478.478 0 01-.73-.604l.053-.068L8.27 7.222a.477.477 0 01.733.599l-.06.075-.2.198.791.79a3.943 3.943 0 011.727-.79l.239-.037V6.954h-.282a.477.477 0 01-.086-.946L11.217 6h1.518zm-.729 3c-.805 0-1.557.31-2.123.873A2.977 2.977 0 009 11.99c.002.8.298 1.534.835 2.092a3.002 3.002 0 004.225.096l.03-.046.071-.055c.54-.56.837-1.296.839-2.073a2.98 2.98 0 00-.874-2.121 2.978 2.978 0 00-1.92-.876l-.2-.007z" fill="#878E99" fill-rule="evenodd"/></svg>
